public/favicon.svg

<svg xmlns="http://www.w3.org/2000/svg" width="31" height="29" viewBox="0 0 31 29" version="1.1">
	<path d="M 9.812 5.030 L 0.125 9.957 0.180 13.992 L 0.236 18.028 1.118 18.573 C 1.603 18.873, 2 19.985, 2 21.045 L 2 22.971 8.010 26.005 L 14.019 29.039 23.010 22.993 L 32 16.948 32 15.903 C 32 15.328, 31.321 14.178, 30.491 13.348 L 28.982 11.839 29.645 10.765 L 30.309 9.691 28.905 10.543 C 28.132 11.012, 24.475 13.346, 20.777 15.729 L 14.055 20.061 8.990 17.495 L 3.925 14.928 2.803 15.621 L 1.682 16.315 9.091 20.108 L 16.500 23.901 15.221 23.951 C 14.146 23.992, 2.318 18.507, 1.107 17.406 C 0.892 17.209, 1.284 16.362, 1.980 15.524 L 3.245 14 2.122 14 L 1 14 1 13.009 L 1 12.019 7.285 15.118 L 13.571 18.218 21.272 13.542 L 28.974 8.866 30.003 9.502 L 31.033 10.138 30.500 11 L 29.967 11.862 30.984 12.490 L 32 13.118 32 11.059 L 32 9 31.111 9 L 30.222 9 30.361 7.285 L 30.500 5.569 25.500 2.808 C 22.750 1.289, 20.275 0.059, 20 0.074 C 19.725 0.090, 15.141 2.320, 9.812 5.030 M 9.802 5.823 L 0.104 10.500 0.168 12.500 L 0.232 14.500 0.681 12.792 L 1.131 11.083 7.324 14.137 L 13.518 17.192 21.734 12.346 C 26.253 9.681, 29.962 7.170, 29.975 6.767 C 29.997 6.137, 20.570 0.870, 19.783 1.073 C 19.627 1.113, 15.136 3.250, 9.802 5.823 M 20.614 16.711 L 13.729 21.269 15.351 22.177 L 16.973 23.085 19.072 21.961 C 20.227 21.343, 20.946 20.613, 20.671 20.338 C 20.396 20.063, 19.233 20.340, 18.086 20.954 C 13.776 23.260, 16.223 21.146, 21.966 17.602 C 25.247 15.577, 28.199 13.488, 28.525 12.960 L 29.118 12 28.309 12.077 C 27.864 12.119, 24.401 14.204, 20.614 16.711 M 24.731 16.756 C 22.658 18.153, 21.187 19.520, 21.461 19.794 C 21.735 20.068, 23.710 19.134, 25.851 17.717 L 29.742 15.142 30.871 16.271 L 32 17.400 32 15.913 L 32 14.426 30.250 14.321 L 28.500 14.216 24.731 16.756 M 4 16.500 C 4 16.775, 4.225 17, 4.500 17 C 4.775 17, 5 16.775, 5 16.500 C 5 16.225, 4.775 16, 4.500 16 C 4.225 16, 4 16.225, 4 16.500 M 22.195 20.855 L 14.890 25.363 9.423 22.681 C 4.015 20.029, 1.098 19.125, 4 21 L 5.500 21.969 4 22.033 L 2.500 22.096 8.262 25.070 L 14.024 28.044 21.762 22.872 C 30.789 16.838, 30.453 17.093, 29.917 16.674 C 29.688 16.495, 26.213 18.376, 22.195 20.855 M 6 17.500 C 6 17.775, 6.225 18, 6.500 18 C 6.775 18, 7 17.775, 7 17.500 C 7 17.225, 6.775 17, 6.500 17 C 6.225 17, 6 17.225, 6 17.500 M 8 18.500 C 8 18.775, 8.225 19, 8.500 19 C 8.775 19, 9 18.775, 9 18.500 C 9 18.225, 8.775 18, 8.500 18 C 8.225 18, 8 18.225, 8 18.500 M 10 19.500 C 10 19.775, 10.225 20, 10.500 20 C 10.775 20, 11 19.775, 11 19.500 C 11 19.225, 10.775 19, 10.500 19 C 10.225 19, 10 19.225, 10 19.500 M 12 20.500 C 12 20.775, 12.225 21, 12.500 21 C 12.775 21, 13 20.775, 13 20.500 C 13 20.225, 12.775 20, 12.500 20 C 12.225 20, 12 20.225, 12 20.500 M 9 24.500 C 11.475 25.825, 13.950 26.910, 14.500 26.910 C 15.050 26.910, 13.475 25.825, 11 24.500 C 8.525 23.175, 6.050 22.090, 5.500 22.090 C 4.950 22.090, 6.525 23.175, 9 24.500" stroke="none" fill="#040404" fill-rule="evenodd"/>
	<path d="M 10 5.937 L 0.500 10.772 7.009 13.982 L 13.518 17.192 21.734 12.346 C 26.253 9.681, 29.962 7.170, 29.975 6.767 C 29.996 6.150, 20.633 0.898, 19.783 1.051 C 19.627 1.079, 15.225 3.277, 10 5.937 M 21.042 13.639 L 13.583 18.224 7.292 15.121 L 1 12.019 1 13.009 L 1 14 2.122 14 L 3.245 14 1.980 15.524 C 1.284 16.362, 0.892 17.209, 1.107 17.406 C 2.316 18.506, 14.145 23.992, 15.221 23.951 L 16.500 23.903 10.204 20.664 L 3.908 17.425 4.621 16.712 C 5.013 16.321, 5.735 16, 6.226 16 L 7.118 16 6.507 16.989 L 5.896 17.977 7.612 17.319 L 9.328 16.660 8.612 17.819 L 7.896 18.977 9.612 18.319 L 11.328 17.660 10.737 18.616 L 10.147 19.571 12.323 19.613 L 14.500 19.655 21.281 15.327 C 25.011 12.947, 28.386 11.009, 28.781 11.020 C 29.177 11.031, 25.979 13.322, 21.675 16.112 L 13.850 21.183 14.376 21.709 L 14.902 22.236 22.140 17.368 L 29.377 12.500 29.600 10.750 L 29.823 9 29.162 9.027 C 28.798 9.042, 25.144 11.117, 21.042 13.639 M 22.258 18.261 C 18.825 20.509, 16.223 22.557, 16.477 22.810 C 16.730 23.064, 17.964 22.620, 19.219 21.825 C 25.531 17.823, 29 15.890, 29 16.374 C 29 16.669, 25.811 18.805, 21.913 21.121 L 14.826 25.331 9.391 22.666 C 4.010 20.027, 1.105 19.129, 4 21 L 5.500 21.969 4 22.033 L 2.500 22.096 8.241 25.060 L 13.982 28.023 21.906 22.761 L 29.831 17.500 29.703 15.750 C 29.536 13.483, 29.570 13.471, 22.258 18.261 M 2.500 16 L 1.882 17 2.882 17 C 3.432 17, 4.160 16.550, 4.500 16 L 5.118 15 4.118 15 C 3.568 15, 2.840 15.450, 2.500 16 M 12 20.500 C 12 20.775, 12.225 21, 12.500 21 C 12.775 21, 13 20.775, 13 20.500 C 13 20.225, 12.775 20, 12.500 20 C 12.225 20, 12 20.225, 12 20.500 M 9 24.500 C 11.475 25.825, 13.950 26.910, 14.500 26.910 C 15.050 26.910, 13.475 25.825, 11 24.500 C 8.525 23.175, 6.050 22.090, 5.500 22.090 C 4.950 22.090, 6.525 23.175, 9 24.500" stroke="none" fill="#fcfcfc" fill-rule="evenodd"/>
</svg>

<svg xmlns="http://www.w3.org/2000/svg" width="30" height="30">
	<path d="M9.8 5 .1 10v4l.1 4 1 .6c.4.3.8 1.4.8 2.4v2l6 3 6 3 9-6 9-6v-1.1c0-.6-.7-1.7-1.5-2.6L29 11.8l.6-1 .7-1.1-1.4.8-8.1 5.2-6.7 4.4L9 17.5l-5-2.6-1.2.7-1.1.7L9 20.1l7.4 3.8h-1.3c-1 0-12.9-5.4-14-6.5-.3-.2 0-1 .8-1.9L3.2 14H1v-2l6.3 3.1 6.3 3.1 7.7-4.7L29 9l1 .6 1 .6-.5.9-.5.9 1 .6 1 .6V9h-1.8l.2-1.7.1-1.7-5-2.8A40.5 40.5 0 0 0 20 .1c-.3 0-4.9 2.2-10.2 5m0 .7L.1 10.5v2l.1 2 .5-1.7L1 11l6.2 3 6.2 3 8.2-4.8C26.3 9.7 30 7.2 30 6.8 30 6 20.6.8 19.8 1l-10 4.7m10.8 11-6.9 4.5 1.7.9 1.6.9 2-1.1c1.2-.7 2-1.4 1.7-1.7-.3-.2-1.5 0-2.6.7-4.3 2.3-1.9.1 3.9-3.4 3.2-2 6.2-4.1 6.5-4.6l.6-1h-.8c-.4.1-3.9 2.2-7.7 4.7m4.1 0c-2 1.5-3.5 2.8-3.2 3 .2.4 2.2-.6 4.4-2l3.8-2.6 1.2 1.2 1.1 1.1v-3h-1.8l-1.7-.2-3.8 2.6M4 16.5c0 .3.2.5.5.5s.5-.2.5-.5-.2-.5-.5-.5-.5.2-.5.5m18.2 4.4-7.3 4.5-5.5-2.7C4 20 1.1 19 4 21l1.5 1H4l-1.5.1 5.8 3 5.7 3 7.8-5.2c9-6 8.7-5.8 8.1-6.2-.2-.2-3.7 1.7-7.7 4.2M6 17.5c0 .3.2.5.5.5s.5-.2.5-.5-.2-.5-.5-.5-.5.2-.5.5m2 1c0 .3.2.5.5.5s.5-.2.5-.5-.2-.5-.5-.5-.5.2-.5.5m2 1c0 .3.2.5.5.5s.5-.2.5-.5-.2-.5-.5-.5-.5.2-.5.5m2 1c0 .3.2.5.5.5s.5-.2.5-.5-.2-.5-.5-.5-.5.2-.5.5m-3 4c2.5 1.3 5 2.4 5.5 2.4.6 0-1-1-3.5-2.4-2.5-1.3-5-2.4-5.5-2.4s1 1 3.5 2.4" fill="#040404" fill-rule="evenodd"/>
	<path d="M10 6 .5 10.7 7 14l6.5 3.2 8.2-4.9C26.3 9.7 30 7.2 30 6.8 30 6.2 20.6.9 19.8 1L10 5.9m11 7.7-7.4 4.6-6.3-3L1 12v2h2.2L2 15.5c-.7.9-1.1 1.7-.9 2 1.2 1 13 6.5 14.1 6.5l1.3-.1-6.3-3.2-6.3-3.3.7-.7c.4-.4 1.1-.7 1.6-.7h1l-.7 1-.6 1 1.7-.7 1.7-.6-.7 1.1L8 19l1.7-.7 1.7-.6-.6 1-.6.9h4.4l6.8-4.3a53 53 0 0 1 7.5-4.3c.4 0-2.8 2.3-7.1 5.1l-7.8 5 .5.6.5.5 7.2-4.8 7.3-4.9.2-1.8.2-1.7h-.6c-.4 0-4 2.1-8.2 4.6m1.3 4.7c-3.5 2.2-6 4.3-5.8 4.5.2.3 1.5-.2 2.7-1 6.3-4 9.8-6 9.8-5.4 0 .3-3.2 2.4-7 4.7l-7.2 4.2-5.4-2.6C4 20 1 19 4 21l1.5 1H4l-1.5.1 5.7 3 5.8 3 8-5.3 7.8-5.3-.1-1.8c-.2-2.2-.1-2.2-7.4 2.6M2.5 16l-.6 1h1c.5 0 1.3-.4 1.6-1l.6-1h-1c-.5 0-1.3.4-1.6 1m9.5 4.5c0 .3.2.5.5.5s.5-.2.5-.5-.2-.5-.5-.5-.5.2-.5.5m-3 4c2.5 1.3 5 2.4 5.5 2.4.6 0-1-1-3.5-2.4-2.5-1.3-5-2.4-5.5-2.4s1 1 3.5 2.4" fill="#fcfcfc" fill-rule="evenodd"/>
</svg>
